resources/svg/watch-o.svg

<svg xmlns="http://www.w3.org/2000/svg" viewBox="0 0 15 15" fill="none"><path d="M4.5 3.5H10.5M4.5 3.5C3.94772 3.5 3.5 3.94772 3.5 4.5V10.5C3.5 11.0523 3.94772 11.5 4.5 11.5M4.5 3.5V1.5C4.5 0.947715 4.94772 0.5 5.5 0.5H9.5C10.0523 0.5 10.5 0.947715 10.5 1.5V3.5M10.5 3.5C11.0523 3.5 11.5 3.94772 11.5 4.5V10.5C11.5 11.0523 11.0523 11.5 10.5 11.5M10.5 11.5H4.5M10.5 11.5V13.5C10.5 14.0523 10.0523 14.5 9.5 14.5H5.5C4.94772 14.5 4.5 14.0523 4.5 13.5V11.5M13.5 6V9" stroke="black"/></svg>

<svg xmlns="http://www.w3.org/2000/svg" viewBox="0 0 15 15" fill="none"><path d="M4.5 3.5h6m-6 0a1 1 0 00-1 1v6a1 1 0 001 1m0-8v-2a1 1 0 011-1h4a1 1 0 011 1v2m0 0a1 1 0 011 1v6a1 1 0 01-1 1m0 0h-6m6 0v2a1 1 0 01-1 1h-4a1 1 0 01-1-1v-2m9-5.5v3" stroke="currentColor"/></svg>
